X:1124
T:Bank Corps,The. WM.137
M:2/4
L:1/8
Q:220
S:Wm.Mittell's MS,New Romney,Kent,1799
R:March
O:England
A:Kent
N:
D:
H:
Z:vmp.Chris Partington
W:
K:D
afd2|ecA2|d/d/d e/e/e|f2e2|afd2|b^ge2|!a/a/a b^g|a2a2:|
|:AA/B/ c/d/e/f/|ge/g/ fd|g/a/b/g/ e/f/g/e/|!
c/d/e/c/A2|afd2|ecA2|d/d/d f/e/d/c/|d2d2:|]


